svgs/slowly.svg

<svg width="192" height="192" viewBox="0 0 192 192" fill="none" xmlns="http://www.w3.org/2000/svg">
<circle cx="96" cy="96" r="74" stroke="black" stroke-width="12"/>
<path d="M97 143V49" stroke="black" stroke-width="12" stroke-linecap="round" stroke-linejoin="round"/>
<path d="M118 83.5V60H140.5V83.5H118Z" stroke="black" stroke-width="6" stroke-linecap="round" stroke-linejoin="round"/>
<path d="M73 118C68.8182 118 69.7872 110 65.1591 110C60.531 110 61.9463 118 57.3182 118C52.6901 118 54.1054 110 49.4773 110C44.8492 110 45.8182 118 41.6364 118C37.4545 118 39.5455 110 34.8409 110C30.1364 110 31.1818 118 27 118" stroke="black" stroke-width="6" stroke-linecap="round" stroke-linejoin="round"/>
<path d="M73 100C68.8182 100 69.7872 92 65.1591 92C60.531 92 61.9463 100 57.3182 100C52.6901 100 54.1054 92 49.4773 92C44.8492 92 45.8182 100 41.6364 100C37.4545 100 39.5455 92 34.8409 92C30.1364 92 31.1818 100 27 100" stroke="black" stroke-width="6" stroke-linecap="round" stroke-linejoin="round"/>
<path d="M73.1591 137C68.9773 137 69.9463 129 65.3182 129C60.6901 129 62.1054 137 57.4773 137C52.8492 137 54.2645 129 49.6364 129C45.0082 129 45.9773 137 41.7955 137C37.6136 137 39.7045 129 35 129" stroke="black" stroke-width="6" stroke-linecap="round" stroke-linejoin="round"/>
</svg>

<svg width="192" height="192" viewBox="0 0 192 192" fill="none" xmlns="http://www.w3.org/2000/svg"><circle cx="96" cy="96" r="74" stroke="#000" stroke-width="12"/><path d="M97 143V49" stroke="#000" stroke-width="12" stroke-linecap="round" stroke-linejoin="round"/><path d="M118 83.5V60h22.5v23.5H118ZM73 118c-4.182 0-3.213-8-7.84-8-4.629 0-3.214 8-7.842 8s-3.213-8-7.84-8c-4.629 0-3.66 8-7.842 8-4.181 0-2.09-8-6.795-8s-3.66 8-7.841 8M73 100c-4.182 0-3.213-8-7.84-8-4.629 0-3.214 8-7.842 8s-3.213-8-7.84-8c-4.629 0-3.66 8-7.842 8-4.181 0-2.09-8-6.795-8s-3.66 8-7.841 8M73.16 137c-4.183 0-3.214-8-7.842-8s-3.213 8-7.84 8c-4.629 0-3.214-8-7.842-8s-3.659 8-7.84 8c-4.182 0-2.091-8-6.796-8" stroke="#000" stroke-width="6" stroke-linecap="round" stroke-linejoin="round"/></svg>
